svg/material-icons/co2/materialicons/20px.svg

<svg xmlns="http://www.w3.org/2000/svg" width="20" height="20" viewBox="0 0 20 20"><path d="M11.5 8h-2c-.28 0-.5.22-.5.5v3c0 .28.22.5.5.5h2c.28 0 .5-.22.5-.5v-3c0-.28-.22-.5-.5-.5zm-.5 3h-1V9h1v2zm6 3h-3v-2c0-.28.22-.5.5-.5H16V11h-2v-1h2.5c.28 0 .5.22.5.5V12c0 .28-.22.5-.5.5H15v.5h2v1zM4 11.34V8.67c0-.37.3-.67.67-.67h1.66c.37 0 .67.3.67.67v.66H6V9H5v2h1v-.34h1v.67c0 .37-.3.67-.66.67H4.67c-.37 0-.67-.3-.67-.66z"/></svg>

<svg xmlns="http://www.w3.org/2000/svg" enable-background="new 0 0 20 20" height="20" viewBox="0 0 20 20" width="20"><rect fill="none" height="20" width="20"/><path d="M11.5,8h-2C9.22,8,9,8.22,9,8.5v3C9,11.78,9.22,12,9.5,12h2c0.28,0,0.5-0.22,0.5-0.5v-3C12,8.22,11.78,8,11.5,8z M11,11h-1 V9h1V11z M17,14h-3v-2c0-0.28,0.22-0.5,0.5-0.5H16V11h-2v-1h2.5c0.28,0,0.5,0.22,0.5,0.5V12c0,0.28-0.22,0.5-0.5,0.5H15V13h2V14z M4,11.34V8.67C4,8.3,4.3,8,4.67,8h1.66C6.7,8,7,8.3,7,8.67v0.66H6V9H5v2h1v-0.34h1v0.67C7,11.7,6.7,12,6.34,12H4.67 C4.3,12,4,11.7,4,11.34z"/></svg>
